gama.ui.shared/icons_svg/light/navigator/file.refresh.svg

<svg height="25" viewBox="-908.7 -3666.75 25 25" width="25" xmlns="http://www.w3.org/2000/svg"><g fill="none"><path d="m-904.36-3666.25h16.32c2.1208 0 3.84 1.7192 3.84 3.84v16.32c0 2.1208-1.7192 3.84-3.84 3.84h-16.32c-2.1208 0-3.84-1.7192-3.84-3.84v-16.32c0-2.1208 1.7192-3.84 3.84-3.84z" fill="#fff"/><path d="m-904.36-3666.25h16.32c2.1208 0 3.84 1.7192 3.84 3.84v16.32c0 2.1208-1.7192 3.84-3.84 3.84h-16.32c-2.1208 0-3.84-1.7192-3.84-3.84v-16.32c0-2.1208 1.7192-3.84 3.84-3.84z" stroke="#000" stroke-linecap="round" stroke-linejoin="round" stroke-width=".25"/><path d="m-898.6063-3656.9167h-3.3715c-.7364 0-1.3333.597-1.3333 1.3334v5.3333c0 .7364.5969 1.3333 1.3333 1.3333h11.5556c.7364 0 1.3333-.5969 1.3333-1.3333v-5.3333c0-.7364-.5969-1.3334-1.3333-1.3334h-3.5556c-.2454 0-.4444-.1989-.4444-.4443 0-.2456.199-.4446.4444-.4446h3.5556c1.2273 0 2.2222.995 2.2222 2.2223v5.3333c0 1.2273-.9949 2.2222-2.2222 2.2222h-11.5556c-1.2273 0-2.2222-.9949-2.2222-2.2222v-5.3333c0-1.2273.9949-2.2223 2.2222-2.2223h3.3715l-1.908-1.9079c-.1735-.1735-.1735-.455 0-.6285.1736-.1736.455-.1736.6286 0l2.6666 2.6666c.1736.1734.1736.455 0 .6284l-2.6666 2.667c-.1736.1734-.455.1734-.6286 0-.1735-.1737-.1735-.455 0-.6287z" fill="#5c76a1"/></g></svg>

<?xml version="1.0" encoding="UTF-8" standalone="no"?>
<!DOCTYPE svg PUBLIC "-//W3C//DTD SVG 1.1//EN" "http://www.w3.org/Graphics/SVG/1.1/DTD/svg11.dtd">
<svg version="1.1" xmlns="http://www.w3.org/2000/svg" xmlns:xl="http://www.w3.org/1999/xlink" xmlns:dc="http://purl.org/dc/elements/1.1/" viewBox="-908.7 -3666.75 25 25" width="25" height="25">
  <defs/>
  <g id="SOURCES" stroke-dasharray="none" fill="none" stroke="none" fill-opacity="1" stroke-opacity="1">
    <title>SOURCES</title>
    <g id="SOURCES_Calque_1">
      <title>Calque 1</title>
      <g id="Graphic_6415">
        <title>views/view.other</title>
        <path d="M -904.36 -3666.25 L -888.04 -3666.25 C -885.9192 -3666.25 -884.2 -3664.5308 -884.2 -3662.41 L -884.2 -3646.09 C -884.2 -3643.9692 -885.9192 -3642.25 -888.04 -3642.25 L -904.36 -3642.25 C -906.4808 -3642.25 -908.2 -3643.9692 -908.2 -3646.09 L -908.2 -3662.41 C -908.2 -3664.5308 -906.4808 -3666.25 -904.36 -3666.25 Z" fill="white"/>
        <path d="M -904.36 -3666.25 L -888.04 -3666.25 C -885.9192 -3666.25 -884.2 -3664.5308 -884.2 -3662.41 L -884.2 -3646.09 C -884.2 -3643.9692 -885.9192 -3642.25 -888.04 -3642.25 L -904.36 -3642.25 C -906.4808 -3642.25 -908.2 -3643.9692 -908.2 -3646.09 L -908.2 -3662.41 C -908.2 -3664.5308 -906.4808 -3666.25 -904.36 -3666.25 Z" stroke="black" stroke-linecap="round" stroke-linejoin="round" stroke-width=".25"/>
      </g>
      <g id="Graphic_6414">
        <path d="M -898.6063 -3656.9167 L -901.9778 -3656.9167 C -902.7142 -3656.9167 -903.3111 -3656.3197 -903.3111 -3655.5833 L -903.3111 -3650.25 C -903.3111 -3649.5136 -902.7142 -3648.9167 -901.9778 -3648.9167 L -890.4222 -3648.9167 C -889.6858 -3648.9167 -889.0889 -3649.5136 -889.0889 -3650.25 L -889.0889 -3655.5833 C -889.0889 -3656.3197 -889.6858 -3656.9167 -890.4222 -3656.9167 L -893.9778 -3656.9167 C -894.2232 -3656.9167 -894.4222 -3657.1156 -894.4222 -3657.361 C -894.4222 -3657.6066 -894.2232 -3657.8056 -893.9778 -3657.8056 L -890.4222 -3657.8056 C -889.1949 -3657.8056 -888.2 -3656.8106 -888.2 -3655.5833 L -888.2 -3650.25 C -888.2 -3649.0227 -889.1949 -3648.0278 -890.4222 -3648.0278 L -901.9778 -3648.0278 C -903.2051 -3648.0278 -904.2 -3649.0227 -904.2 -3650.25 L -904.2 -3655.5833 C -904.2 -3656.8106 -903.2051 -3657.8056 -901.9778 -3657.8056 L -898.6063 -3657.8056 L -900.5143 -3659.7135 C -900.6878 -3659.887 -900.6878 -3660.1685 -900.5143 -3660.342 C -900.3407 -3660.5156 -900.0593 -3660.5156 -899.8857 -3660.342 L -897.2191 -3657.6754 C -897.0455 -3657.502 -897.0455 -3657.2204 -897.2191 -3657.047 L -899.8857 -3654.38 C -900.0593 -3654.2066 -900.3407 -3654.2066 -900.5143 -3654.38 C -900.6878 -3654.5537 -900.6878 -3654.835 -900.5143 -3655.0087 Z" fill="#5c76a1"/>
      </g>
    </g>
  </g>
</svg>
